tools/download-figma-icons/icons/outlined-large/emob-wall.svg

<svg width="64" height="64" viewBox="0 0 64 64" fill="none" xmlns="http://www.w3.org/2000/svg"><path fill-rule="evenodd" clip-rule="evenodd" d="M20 15h16v-5H20v5Zm16.5 3h-17a2.502 2.502 0 0 1-2.5-2.5v-6C17 8.121 18.121 7 19.5 7h17C37.879 7 39 8.121 39 9.5v6c0 1.379-1.121 2.5-2.5 2.5ZM9 28h10v-5H9v5Zm10.5 3h-11A2.502 2.502 0 0 1 6 28.5v-6C6 21.121 7.121 20 8.5 20h11c1.379 0 2.5 1.121 2.5 2.5v6c0 1.379-1.121 2.5-2.5 2.5ZM55 28H41v-5h14v5Zm-14.469 3h14.938A2.535 2.535 0 0 0 58 28.469v-5.938A2.535 2.535 0 0 0 55.469 20H40.531A2.535 2.535 0 0 0 38 22.531v5.938A2.535 2.535 0 0 0 40.531 31ZM47 41h14v-5H47v5Zm14.5 3h-15a2.502 2.502 0 0 1-2.5-2.5v-6c0-1.379 1.121-2.5 2.5-2.5h15c1.379 0 2.5 1.121 2.5 2.5v6c0 1.379-1.121 2.5-2.5 2.5ZM39 41H25v-5h14v5Zm-14.5 3h15c1.379 0 2.5-1.121 2.5-2.5v-6c0-1.379-1.121-2.5-2.5-2.5h-15a2.502 2.502 0 0 0-2.5 2.5v6c0 1.379 1.121 2.5 2.5 2.5ZM3 41h14v-5H3v5Zm14.5 3h-15A2.502 2.502 0 0 1 0 41.5v-6C0 34.121 1.121 33 2.5 33h15c1.379 0 2.5 1.121 2.5 2.5v6c0 1.379-1.121 2.5-2.5 2.5ZM33 28h-6v-5h6v5Zm-6.5 3h7c1.379 0 2.5-1.121 2.5-2.5v-6c0-1.379-1.121-2.5-2.5-2.5h-7a2.502 2.502 0 0 0-2.5 2.5v6c0 1.379 1.121 2.5 2.5 2.5ZM32 54h16v-5H32v5Zm16.5 3h-17a2.502 2.502 0 0 1-2.5-2.5v-6c0-1.379 1.121-2.5 2.5-2.5h17c1.379 0 2.5 1.121 2.5 2.5v6c0 1.379-1.121 2.5-2.5 2.5ZM24 54h-6v-5h6v5Zm-6.5 3h7c1.379 0 2.5-1.121 2.5-2.5v-6c0-1.379-1.121-2.5-2.5-2.5h-7a2.502 2.502 0 0 0-2.5 2.5v6c0 1.379 1.121 2.5 2.5 2.5Z" fill="currentColor"/></svg>

<svg width="64" height="64" viewBox="0 0 64 64" fill="none" xmlns="http://www.w3.org/2000/svg">
<path fill-rule="evenodd" clip-rule="evenodd" d="M20 15H36V10H20V15ZM36.5 18H19.5C18.121 18 17 16.879 17 15.5V9.5C17 8.121 18.121 7 19.5 7H36.5C37.879 7 39 8.121 39 9.5V15.5C39 16.879 37.879 18 36.5 18ZM9 28H19V23H9V28ZM19.5 31H8.5C7.121 31 6 29.879 6 28.5V22.5C6 21.121 7.121 20 8.5 20H19.5C20.879 20 22 21.121 22 22.5V28.5C22 29.879 20.879 31 19.5 31ZM55 28H41V23H55V28ZM40.531 31H55.469C56.864 31 58 29.864 58 28.469V22.531C58 21.136 56.864 20 55.469 20H40.531C39.136 20 38 21.136 38 22.531V28.469C38 29.864 39.136 31 40.531 31ZM47 41H61V36H47V41ZM61.5 44H46.5C45.121 44 44 42.879 44 41.5V35.5C44 34.121 45.121 33 46.5 33H61.5C62.879 33 64 34.121 64 35.5V41.5C64 42.879 62.879 44 61.5 44ZM39 41H25V36H39V41ZM24.5 44H39.5C40.879 44 42 42.879 42 41.5V35.5C42 34.121 40.879 33 39.5 33H24.5C23.121 33 22 34.121 22 35.5V41.5C22 42.879 23.121 44 24.5 44ZM3 41H17V36H3V41ZM17.5 44H2.5C1.121 44 0 42.879 0 41.5V35.5C0 34.121 1.121 33 2.5 33H17.5C18.879 33 20 34.121 20 35.5V41.5C20 42.879 18.879 44 17.5 44ZM33 28H27V23H33V28ZM26.5 31H33.5C34.879 31 36 29.879 36 28.5V22.5C36 21.121 34.879 20 33.5 20H26.5C25.121 20 24 21.121 24 22.5V28.5C24 29.879 25.121 31 26.5 31ZM32 54H48V49H32V54ZM48.5 57H31.5C30.121 57 29 55.879 29 54.5V48.5C29 47.121 30.121 46 31.5 46H48.5C49.879 46 51 47.121 51 48.5V54.5C51 55.879 49.879 57 48.5 57ZM24 54H18V49H24V54ZM17.5 57H24.5C25.879 57 27 55.879 27 54.5V48.5C27 47.121 25.879 46 24.5 46H17.5C16.121 46 15 47.121 15 48.5V54.5C15 55.879 16.121 57 17.5 57Z" fill="black"/>
</svg>
